project/images/official/editable/451-2.svg

<?xml version="1.0" encoding="UTF-8" standalone="no"?>
<svg
   xmlns:dc="http://purl.org/dc/elements/1.1/"
   xmlns:cc="http://creativecommons.org/ns#"
   xmlns:rdf="http://www.w3.org/1999/02/22-rdf-syntax-ns#"
   xmlns:svg="http://www.w3.org/2000/svg"
   xmlns="http://www.w3.org/2000/svg"
   xmlns:sodipodi="http://sodipodi.sourceforge.net/DTD/sodipodi-0.dtd"
   xmlns:inkscape="http://www.inkscape.org/namespaces/inkscape"
   width="29pt"
   height="44pt"
   viewBox="0 0 29 44"
   version="1.1"
   id="svg6552"
   sodipodi:docname="451-2.svg"
   inkscape:version="1.0.2 (e86c870879, 2021-01-15, custom)">
  <metadata
     id="metadata6558">
    <rdf:RDF>
      <cc:Work
         rdf:about="">
        <dc:format>image/svg+xml</dc:format>
        <dc:type
           rdf:resource="http://purl.org/dc/dcmitype/StillImage" />
      </cc:Work>
    </rdf:RDF>
  </metadata>
  <defs
     id="defs6556" />
  <sodipodi:namedview
     pagecolor="#ffffff"
     bordercolor="#666666"
     borderopacity="1"
     objecttolerance="10"
     gridtolerance="10"
     guidetolerance="10"
     inkscape:pageopacity="0"
     inkscape:pageshadow="2"
     inkscape:window-width="1920"
     inkscape:window-height="1017"
     id="namedview6554"
     showgrid="false"
     inkscape:zoom="10.245013"
     inkscape:cx="8.6729382"
     inkscape:cy="24.199674"
     inkscape:window-x="5752"
     inkscape:window-y="-8"
     inkscape:window-maximized="1"
     inkscape:current-layer="svg6552" />
  <rect
     style="fill:#ffffff;stroke:#ffffff;stroke-width:0.075"
     id="rect7123"
     width="28.0625"
     height="42.238281"
     x="0.48828098"
     y="1.054688" />
  <path
     style="fill:#211e1e;fill-opacity:1;fill-rule:nonzero;stroke:none"
     d="M 0.34375,0.914062 H 28.691406 V 43.433594 H 0.34375 V 0.914062 m 0.144531,0.140626 v 42.238281 h 28.0625 V 1.054688 h -28.0625"
     id="path6547" />
  <path
     style="fill:#ae1e19;fill-opacity:1;fill-rule:nonzero;stroke:none"
     d="m 1.769531,2.328125 h 25.5 v 39.699219 h -25.5 V 2.328125 m 10.328125,35.871094 c -0.898437,-9.699219 3.71875,-9.242188 5.824219,-9.242188 -0.378906,0.824219 -0.332031,0.800781 -0.917969,2.089844 0,1.132813 0.917969,0.863281 0.917969,0.863281 0,0 2.601563,-2.109375 4.589844,-3.914062 0.566406,-0.472656 0,-0.910156 0,-0.910156 -2.035157,-1.898438 -2.800781,-2.519532 -4.589844,-4.105469 -0.371094,-0.320313 -1.269531,-0.01563 -0.917969,0.890625 0.402344,1.0625 0.539063,1.035156 0.917969,1.988281 -8.835937,0 -9.386719,6.132813 -9.386719,12.339844 1.855469,0 3.5625,0 3.5625,0 m 7.160156,-26.394531 c -0.101562,-0.02734 -0.277343,-0.07422 -0.527343,-0.136719 -0.964844,-0.238281 -1.664063,-0.453125 -2.097657,-0.640625 -0.832031,-0.363282 -1.246093,-0.804688 -1.246093,-1.328125 0,-0.125 0.02344,-0.253907 0.07422,-0.386719 C 15.800782,8.421875 16.117189,7.59375 16.41797,6.816406 16.269531,6.730469 16.097656,6.6875 15.90625,6.6875 c -0.207031,0 -0.539062,0.066406 -0.992188,0.203125 -0.492187,0.144531 -0.863281,0.21875 -1.105468,0.21875 -0.28125,0 -0.53125,-0.070313 -0.746094,-0.203125 -0.01172,-0.00391 -0.01953,-0.00781 -0.02344,-0.011719 -0.03125,0.00781 -0.07422,0.054688 -0.128906,0.140625 -0.06641,0.101563 -0.128906,0.242188 -0.1875,0.414063 -0.105468,0.296875 -0.164062,0.527343 -0.179687,0.699219 -0.05078,0.679687 -0.1875,1.261718 -0.414063,1.753906 -0.136718,0.289062 -0.355468,0.625 -0.65625,1.007812 -0.246094,0.316406 -0.398437,0.566406 -0.457031,0.746094 -0.140625,0.421875 -0.207031,0.753906 -0.207031,0.988281 0,0.164063 0.03125,0.296875 0.09766,0.394531 0.06641,0.105469 0.179688,0.1875 0.335938,0.253907 0.351562,0.148437 0.988281,0.226562 1.914062,0.230469 0.175781,0.0039 0.351562,0.0039 0.523438,0.0039 0.363281,0 0.839843,-0.0039 1.425781,-0.0078 0.558593,-0.0039 1,-0.0078 1.324219,-0.0078 0.527343,0 1.097656,0.0039 1.714843,0.01172 0.230469,-0.0078 0.496094,-0.113282 0.792969,-0.320313 0.296875,-0.210937 0.484375,-0.417969 0.5625,-0.625 l 0.0039,-0.0039 c 0.05078,-0.136719 0.07813,-0.265625 0.07813,-0.378907 0,-0.203124 -0.109375,-0.332031 -0.324219,-0.390624 m 0.140626,-0.488282 c -0.08984,-0.02344 -0.265626,-0.07031 -0.542969,-0.136718 -0.9375,-0.234376 -1.609375,-0.4375 -2.015625,-0.617188 C 16.210938,10.289062 15.898438,10 15.898438,9.699219 c 0,-0.066407 0.01172,-0.136719 0.04297,-0.210938 0.339844,-0.898437 0.660156,-1.730469 0.953125,-2.492187 L 17.046875,6.597656 16.675781,6.378906 C 16.449219,6.246094 16.191406,6.179688 15.90625,6.179688 c -0.253906,0 -0.632812,0.074218 -1.136719,0.226562 -0.445312,0.128906 -0.765625,0.195312 -0.960937,0.195312 -0.179688,0 -0.339844,-0.042968 -0.472656,-0.125 C 13.277344,6.441406 13.21875,6.417969 13.160156,6.402344 L 13.035156,6.375 12.914062,6.40625 c -0.160156,0.042969 -0.304687,0.160156 -0.433593,0.355469 -0.08594,0.136719 -0.164063,0.3125 -0.238281,0.523437 -0.117188,0.332032 -0.1875,0.605469 -0.207032,0.816406 v 0.015626 c -0.04687,0.613281 -0.167968,1.140624 -0.371094,1.574218 -0.117187,0.253906 -0.316406,0.554688 -0.589843,0.90625 -0.289063,0.367188 -0.46875,0.667969 -0.542969,0.902344 -0.15625,0.472656 -0.234375,0.855469 -0.234375,1.144531 0,0.261719 0.0625,0.488281 0.183594,0.671875 0.121093,0.1875 0.308593,0.332032 0.5625,0.441406 0.414062,0.171876 1.117187,0.265626 2.113281,0.269532 0.121094,0 0.296875,0 0.527344,0 0.363281,0 0.839844,0 1.429687,-0.0039 0.554688,-0.0039 0.992188,-0.0078 1.316407,-0.0078 0.527343,0 1.097656,0.0039 1.710937,0.01172 h 0.02344 c 0.332032,-0.01172 0.6875,-0.148438 1.066407,-0.414063 0.382812,-0.269531 0.632812,-0.554687 0.75,-0.859375 0.07422,-0.195312 0.113281,-0.382812 0.113281,-0.558594 0,-0.460937 -0.230469,-0.753906 -0.695312,-0.878906 m -9.609376,3.765625 c -0.507812,0 -0.921874,0.40625 -0.921874,0.910157 0,0.503906 0.414062,0.910156 0.921874,0.910156 0.507813,0 0.921876,-0.40625 0.921876,-0.910156 0,-0.503907 -0.414063,-0.910157 -0.921876,-0.910157 m 0,-0.5 c -0.789062,0 -1.425781,0.632813 -1.425781,1.410157 0,0.777343 0.636719,1.40625 1.425781,1.40625 0.785157,0 1.421876,-0.628907 1.421876,-1.40625 0,-0.777344 -0.636719,-1.410157 -1.421876,-1.410157 m 3.390626,0.5 c -0.511719,0 -0.921876,0.40625 -0.921876,0.910157 0,0.503906 0.410157,0.910156 0.921876,0.910156 0.507812,0 0.921874,-0.40625 0.921874,-0.910156 0,-0.503907 -0.414062,-0.910157 -0.921874,-0.910157 m 0,-0.5 c -0.789063,0 -1.425782,0.632813 -1.425782,1.410157 0,0.777343 0.636719,1.40625 1.425782,1.40625 0.785156,0 1.421874,-0.628907 1.421874,-1.40625 0,-0.777344 -0.636718,-1.410157 -1.421874,-1.410157 m 3.394531,0.5 c -0.507813,0 -0.921875,0.40625 -0.921875,0.910157 0,0.503906 0.414062,0.910156 0.921875,0.910156 0.507812,0 0.921875,-0.40625 0.921875,-0.910156 0,-0.503907 -0.414063,-0.910157 -0.921875,-0.910157 m 0,-0.5 c -0.789063,0 -1.425781,0.632813 -1.425781,1.410157 0,0.777343 0.636718,1.40625 1.425781,1.40625 0.785156,0 1.421875,-0.628907 1.421875,-1.40625 0,-0.777344 -0.636719,-1.410157 -1.421875,-1.410157 m 3.394531,0.5 c -0.507812,0 -0.921875,0.40625 -0.921875,0.910157 0,0.503906 0.414063,0.910156 0.921875,0.910156 0.507812,0 0.921875,-0.40625 0.921875,-0.910156 0,-0.503907 -0.414063,-0.910157 -0.921875,-0.910157 m 0,-0.5 c -0.785156,0 -1.425781,0.632813 -1.425781,1.410157 0,0.777343 0.640625,1.40625 1.425781,1.40625 0.785156,0 1.425781,-0.628907 1.425781,-1.40625 0,-0.777344 -0.640625,-1.410157 -1.425781,-1.410157"
     id="path6549" />
</svg>

<?xml version="1.0" encoding="UTF-8"?>
<svg xmlns="http://www.w3.org/2000/svg" xmlns:xlink="http://www.w3.org/1999/xlink" width="29pt" height="44pt" viewBox="0 0 29 44" version="1.1">
<g id="surface1">
<path style=" stroke:none;fill-rule:nonzero;fill:rgb(13.729858%,12.159729%,12.548828%);fill-opacity:1;" d="M 0.34375 0.914062 L 28.691406 0.914062 L 28.691406 43.433594 L 0.34375 43.433594 L 0.34375 0.914062 M 0.488281 1.054688 L 0.488281 43.292969 L 28.550781 43.292969 L 28.550781 1.054688 L 0.488281 1.054688 "/>
<path style=" stroke:none;fill-rule:nonzero;fill:rgb(68.630981%,12.666321%,10.813904%);fill-opacity:1;" d="M 1.769531 2.328125 L 27.269531 2.328125 L 27.269531 42.027344 L 1.769531 42.027344 L 1.769531 2.328125 M 12.097656 38.199219 C 11.199219 28.5 15.816406 28.957031 17.921875 28.957031 C 17.542969 29.78125 17.589844 29.757812 17.003906 31.046875 C 17.003906 32.179688 17.921875 31.910156 17.921875 31.910156 C 17.921875 31.910156 20.523438 29.800781 22.511719 27.996094 C 23.078125 27.523438 22.511719 27.085938 22.511719 27.085938 C 20.476562 25.1875 19.710938 24.566406 17.921875 22.980469 C 17.550781 22.660156 16.652344 22.964844 17.003906 23.871094 C 17.40625 24.933594 17.542969 24.90625 17.921875 25.859375 C 9.085938 25.859375 8.535156 31.992188 8.535156 38.199219 C 10.390625 38.199219 12.097656 38.199219 12.097656 38.199219 M 19.257812 11.804688 C 19.15625 11.777344 18.980469 11.730469 18.730469 11.667969 C 17.765625 11.429688 17.066406 11.214844 16.632812 11.027344 C 15.800781 10.664062 15.386719 10.222656 15.386719 9.699219 C 15.386719 9.574219 15.410156 9.445312 15.460938 9.3125 C 15.800781 8.421875 16.117188 7.59375 16.417969 6.816406 C 16.269531 6.730469 16.097656 6.6875 15.90625 6.6875 C 15.699219 6.6875 15.367188 6.753906 14.914062 6.890625 C 14.421875 7.035156 14.050781 7.109375 13.808594 7.109375 C 13.527344 7.109375 13.277344 7.039062 13.0625 6.90625 C 13.050781 6.902344 13.042969 6.898438 13.039062 6.894531 C 13.007812 6.902344 12.964844 6.949219 12.910156 7.035156 C 12.84375 7.136719 12.78125 7.277344 12.722656 7.449219 C 12.617188 7.746094 12.558594 7.976562 12.542969 8.148438 C 12.492188 8.828125 12.355469 9.410156 12.128906 9.902344 C 11.992188 10.191406 11.773438 10.527344 11.472656 10.910156 C 11.226562 11.226562 11.074219 11.476562 11.015625 11.65625 C 10.875 12.078125 10.808594 12.410156 10.808594 12.644531 C 10.808594 12.808594 10.839844 12.941406 10.90625 13.039062 C 10.972656 13.144531 11.085938 13.226562 11.242188 13.292969 C 11.59375 13.441406 12.230469 13.519531 13.15625 13.523438 C 13.332031 13.527344 13.507812 13.527344 13.679688 13.527344 C 14.042969 13.527344 14.519531 13.523438 15.105469 13.519531 C 15.664062 13.515625 16.105469 13.511719 16.429688 13.511719 C 16.957031 13.511719 17.527344 13.515625 18.144531 13.523438 C 18.375 13.515625 18.640625 13.410156 18.9375 13.203125 C 19.234375 12.992188 19.421875 12.785156 19.5 12.578125 L 19.503906 12.574219 C 19.554688 12.4375 19.582031 12.308594 19.582031 12.195312 C 19.582031 11.992188 19.472656 11.863281 19.257812 11.804688 M 19.398438 11.316406 C 19.308594 11.292969 19.132812 11.246094 18.855469 11.179688 C 17.917969 10.945312 17.246094 10.742188 16.839844 10.5625 C 16.210938 10.289062 15.898438 10 15.898438 9.699219 C 15.898438 9.632812 15.910156 9.5625 15.941406 9.488281 C 16.28125 8.589844 16.601562 7.757812 16.894531 6.996094 L 17.046875 6.597656 L 16.675781 6.378906 C 16.449219 6.246094 16.191406 6.179688 15.90625 6.179688 C 15.652344 6.179688 15.273438 6.253906 14.769531 6.40625 C 14.324219 6.535156 14.003906 6.601562 13.808594 6.601562 C 13.628906 6.601562 13.46875 6.558594 13.335938 6.476562 C 13.277344 6.441406 13.21875 6.417969 13.160156 6.402344 L 13.035156 6.375 L 12.914062 6.40625 C 12.753906 6.449219 12.609375 6.566406 12.480469 6.761719 C 12.394531 6.898438 12.316406 7.074219 12.242188 7.285156 C 12.125 7.617188 12.054688 7.890625 12.035156 8.101562 L 12.035156 8.117188 C 11.988281 8.730469 11.867188 9.257812 11.664062 9.691406 C 11.546875 9.945312 11.347656 10.246094 11.074219 10.597656 C 10.785156 10.964844 10.605469 11.265625 10.53125 11.5 C 10.375 11.972656 10.296875 12.355469 10.296875 12.644531 C 10.296875 12.90625 10.359375 13.132812 10.480469 13.316406 C 10.601562 13.503906 10.789062 13.648438 11.042969 13.757812 C 11.457031 13.929688 12.160156 14.023438 13.15625 14.027344 C 13.277344 14.027344 13.453125 14.027344 13.683594 14.027344 C 14.046875 14.027344 14.523438 14.027344 15.113281 14.023438 C 15.667969 14.019531 16.105469 14.015625 16.429688 14.015625 C 16.957031 14.015625 17.527344 14.019531 18.140625 14.027344 L 18.164062 14.027344 C 18.496094 14.015625 18.851562 13.878906 19.230469 13.613281 C 19.613281 13.34375 19.863281 13.058594 19.980469 12.753906 C 20.054688 12.558594 20.09375 12.371094 20.09375 12.195312 C 20.09375 11.734375 19.863281 11.441406 19.398438 11.316406 M 9.789062 15.082031 C 9.28125 15.082031 8.867188 15.488281 8.867188 15.992188 C 8.867188 16.496094 9.28125 16.902344 9.789062 16.902344 C 10.296875 16.902344 10.710938 16.496094 10.710938 15.992188 C 10.710938 15.488281 10.296875 15.082031 9.789062 15.082031 M 9.789062 14.582031 C 9 14.582031 8.363281 15.214844 8.363281 15.992188 C 8.363281 16.769531 9 17.398438 9.789062 17.398438 C 10.574219 17.398438 11.210938 16.769531 11.210938 15.992188 C 11.210938 15.214844 10.574219 14.582031 9.789062 14.582031 M 13.179688 15.082031 C 12.667969 15.082031 12.257812 15.488281 12.257812 15.992188 C 12.257812 16.496094 12.667969 16.902344 13.179688 16.902344 C 13.6875 16.902344 14.101562 16.496094 14.101562 15.992188 C 14.101562 15.488281 13.6875 15.082031 13.179688 15.082031 M 13.179688 14.582031 C 12.390625 14.582031 11.753906 15.214844 11.753906 15.992188 C 11.753906 16.769531 12.390625 17.398438 13.179688 17.398438 C 13.964844 17.398438 14.601562 16.769531 14.601562 15.992188 C 14.601562 15.214844 13.964844 14.582031 13.179688 14.582031 M 16.574219 15.082031 C 16.066406 15.082031 15.652344 15.488281 15.652344 15.992188 C 15.652344 16.496094 16.066406 16.902344 16.574219 16.902344 C 17.082031 16.902344 17.496094 16.496094 17.496094 15.992188 C 17.496094 15.488281 17.082031 15.082031 16.574219 15.082031 M 16.574219 14.582031 C 15.785156 14.582031 15.148438 15.214844 15.148438 15.992188 C 15.148438 16.769531 15.785156 17.398438 16.574219 17.398438 C 17.359375 17.398438 17.996094 16.769531 17.996094 15.992188 C 17.996094 15.214844 17.359375 14.582031 16.574219 14.582031 M 19.96875 15.082031 C 19.460938 15.082031 19.046875 15.488281 19.046875 15.992188 C 19.046875 16.496094 19.460938 16.902344 19.96875 16.902344 C 20.476562 16.902344 20.890625 16.496094 20.890625 15.992188 C 20.890625 15.488281 20.476562 15.082031 19.96875 15.082031 M 19.96875 14.582031 C 19.183594 14.582031 18.542969 15.214844 18.542969 15.992188 C 18.542969 16.769531 19.183594 17.398438 19.96875 17.398438 C 20.753906 17.398438 21.394531 16.769531 21.394531 15.992188 C 21.394531 15.214844 20.753906 14.582031 19.96875 14.582031 "/>
</g>
</svg>
